build/payment/PayPalM.svg

<svg xmlns="http://www.w3.org/2000/svg" fill="none" viewBox="0 0 28 20" focusable="false"><path fill="none" d="M0 0H28V20H0z"/><rect width="28" height="20" fill="#F5F5F6" rx="2"/><path fill="#252629" fill-rule="evenodd" d="M7.60705 7.03945C7.8343 6.7642 7.98771 6.38147 7.94546 6C7.61809 6.01314 7.22186 6.21823 6.98681 6.49348C6.77638 6.73674 6.59179 7.12642 6.64181 7.50013C7.0069 7.52843 7.37976 7.31429 7.60705 7.03945ZM14.1192 6.95481Q13.679 6.81362 13.1007 6.81362L11.3226 6.81362L11.3226 12.9908L12.5483 12.9908L12.5483 10.7847L13.1007 10.7847Q14.3264 10.7847 14.8788 10.2728Q14.9602 10.1974 15.0296 10.1122Q15.4312 9.61925 15.4312 8.79914Q15.4312 8.34908 15.2845 7.98728C15.1866 7.74019 15.0399 7.53135 14.8443 7.36074Q14.5594 7.096 14.1192 6.95481ZM9.1263 8.22184C9.06703 8.25805 8.41885 8.65403 8.42605 9.45825C8.43508 10.4431 9.28994 10.7709 9.29979 10.775C9.2924 10.7984 9.16278 11.2422 8.84939 11.7008C8.57783 12.0971 8.29643 12.4921 7.853 12.5007C7.64001 12.5045 7.49759 12.4429 7.34957 12.3788C7.19456 12.3117 7.03342 12.2419 6.77868 12.2419C6.28069 12.2419 6.12481 12.4921 5.71215 12.5085C5.2839 12.5249 4.9582 12.0799 4.68459 11.6848C4.1259 10.8767 3.69846 9.40123 4.27234 8.40567C4.55702 7.91096 5.06608 7.59798 5.61904 7.58978C5.85725 7.58512 6.08808 7.67665 6.29012 7.75676C6.44434 7.81791 6.58179 7.8724 6.69295 7.8724C6.79268 7.8724 6.92646 7.81968 7.08246 7.75819C7.32812 7.66138 7.6289 7.54283 7.93873 7.57419C8.15122 7.58321 8.74683 7.65992 9.12955 8.21985C9.12883 8.2203 9.12774 8.22097 9.1263 8.22184ZM13.888 9.54977Q13.6292 9.81395 13.1007 9.81395L12.5483 9.81395L12.5483 7.78432L13.1007 7.78432Q13.6292 7.78432 13.888 8.0485Q14.1365 8.3021 14.1365 8.79914Q14.1365 9.29617 13.888 9.54977ZM15.9136 8.64912C16.184 8.53734 16.4487 8.46086 16.7077 8.41968Q17.0961 8.34908 17.5536 8.34908Q18.2355 8.34908 18.6239 8.52558C18.8886 8.64324 19.0871 8.79031 19.2194 8.9668C19.3518 9.14329 19.4352 9.33449 19.4698 9.54039Q19.5302 9.84925 19.5302 10.1052L19.5302 12.9908L18.3822 12.9908L18.3822 12.3201L18.3649 12.3201C18.3419 12.3672 18.3016 12.4348 18.2441 12.5231C18.1865 12.6054 18.1031 12.6878 17.9938 12.7702C17.8844 12.8466 17.7463 12.9143 17.5795 12.9731C17.4126 13.032 17.2083 13.0614 16.9666 13.0614Q16.5437 13.0614 16.2416 12.9467Q15.9395 12.8231 15.7496 12.629C15.623 12.4995 15.528 12.3525 15.4647 12.1877Q15.4052 12.0113 15.3867 11.8306L15.3867 11.8305Q15.3784 11.7492 15.3784 11.6671C15.3784 11.5083 15.4043 11.3406 15.4561 11.1641C15.5079 10.9876 15.6143 10.8258 15.7755 10.6788C15.9366 10.5258 16.161 10.4023 16.4487 10.3081Q16.8803 10.1581 17.5967 10.1581L17.5967 10.1581Q17.7607 10.1581 17.9247 10.1669L18.3563 10.1669L18.3563 9.9728C18.3563 9.84925 18.3275 9.73748 18.27 9.63746C18.2182 9.53745 18.1463 9.45509 18.0542 9.39038C17.9621 9.32566 17.8528 9.27566 17.7262 9.24036C17.6053 9.20506 17.4788 9.18741 17.3464 9.18741C17.1508 9.18741 16.9378 9.21389 16.7077 9.26683C16.4775 9.3139 16.2128 9.42273 15.9136 9.59334L15.9136 8.64912ZM20.5709 14.9057C20.6917 14.9351 20.8068 14.9498 20.9162 14.9498C21.2269 14.9498 21.4858 14.9086 21.693 14.8263C21.9002 14.7439 22.0699 14.6351 22.2023 14.4998C22.3346 14.3703 22.4411 14.2203 22.5216 14.0497C22.6079 13.885 22.6828 13.7173 22.746 13.5467L24.6364 8.41968L23.4452 8.41968L22.6338 10.9082L22.3576 11.8171L22.3145 11.8171L22.0642 10.9435L21.2269 8.41968L19.9322 8.41968L21.693 13.2467L21.5894 13.5114C21.5089 13.7114 21.4024 13.8468 21.2701 13.9174C21.1435 13.9879 20.9795 14.0232 20.7781 14.0232C20.6457 14.0232 20.5392 14.0085 20.4587 13.9791C20.3781 13.9556 20.3033 13.9291 20.2343 13.8997L20.2343 14.8175C20.3378 14.8528 20.4501 14.8822 20.5709 14.9057ZM18.1578 10.917C17.9966 10.917 17.8211 10.9229 17.6312 10.9347C17.4471 10.9406 17.2745 10.967 17.1133 11.0141C16.958 11.0612 16.8285 11.1347 16.7249 11.2347C16.6213 11.3347 16.5696 11.4759 16.5696 11.6583C16.5696 11.823 16.6242 11.9642 16.7336 12.0819C16.8429 12.1936 17.027 12.2495 17.286 12.2495Q17.4672 12.2495 17.6571 12.1966C17.7837 12.1613 17.8988 12.0995 18.0024 12.0113C18.106 11.923 18.1894 11.7995 18.2527 11.6406Q18.3563 11.4024 18.3563 11.0317L18.3563 10.917L18.1578 10.917Z"/></svg>

<svg xmlns="http://www.w3.org/2000/svg" fill="none" viewBox="0 0 28 20" focusable="false"><path fill="none" d="M0 0h28v20H0z"/><rect width="28" height="20" fill="#F0F2F5" rx="2"/><path fill="#23262D" fill-rule="evenodd" d="M7.6 7.03c.23-.27.38-.65.34-1.03-.33.01-.72.21-.96.49-.21.24-.39.63-.34 1.01.36.02.73-.19.96-.47m6.51-.08q-.44-.14-1.01-.14h-1.78v6.18h1.22v-2.21h.56q1.22 0 1.77-.51.09-.08.15-.16.41-.5.41-1.32 0-.45-.15-.81c-.1-.24-.25-.45-.44-.62q-.29-.27-.73-.41m-5.69 2.5c-.01-.8.64-1.2.7-1.23v-.01c-.38-.56-.97-.63-1.19-.64-.31-.03-.61.09-.85.18-.16.06-.29.12-.39.12-.11 0-.25-.06-.4-.12-.21-.08-.44-.17-.68-.17-.55.01-1.06.33-1.34.82-.58 1-.15 2.47.41 3.28.27.39.6.84 1.03.82.41-.01.57-.26 1.06-.26.26 0 .42.07.57.13.15.07.3.13.51.13.44-.01.72-.41.99-.8.32-.46.45-.91.45-.93-.01 0-.86-.33-.87-1.32m5.46.09q-.26.27-.78.27h-.56V7.78h.56q.52 0 .78.26.25.26.25.75 0 .5-.25.75m2.03-.9c.27-.11.53-.18.79-.23q.39-.07.85-.07.68 0 1.07.18c.26.12.46.27.59.44.14.18.22.37.25.58q.07.3.07.56v2.89h-1.15v-.67h-.02c-.02.04-.06.11-.12.2-.06.08-.14.16-.25.25-.11.07-.25.14-.42.2-.16.06-.37.09-.61.09q-.42 0-.72-.12-.31-.12-.5-.32c-.12-.13-.22-.27-.28-.44q-.06-.17-.08-.35-.01-.09-.01-.17c0-.16.03-.32.08-.5s.16-.34.32-.49.39-.27.67-.37q.44-.15 1.15-.15.17 0 .33.01h.43v-.19c0-.13-.03-.24-.08-.34a.7.7 0 0 0-.22-.24.8.8 0 0 0-.33-.15c-.12-.04-.25-.06-.38-.06-.19 0-.41.03-.64.08s-.49.16-.79.33zm4.66 6.26c.12.03.23.04.34.04q.465 0 .78-.12c.21-.08.37-.19.51-.33.13-.12.24-.27.32-.45.08-.16.16-.33.22-.5l1.89-5.13h-1.19l-.81 2.49-.28.91h-.04l-.25-.87-.84-2.53h-1.29l1.76 4.83-.11.27c-.08.2-.18.33-.31.4s-.3.11-.5.11c-.13 0-.24-.02-.32-.05-.08-.02-.15-.05-.22-.08v.92c.1.04.22.07.34.09m-2.42-3.99c-.16 0-.33.01-.52.02s-.36.03-.52.08-.29.12-.39.22-.16.24-.16.42c0 .17.06.31.17.43.11.11.29.16.55.16q.18 0 .37-.05c.13-.03.24-.1.35-.18.1-.09.18-.22.25-.37q.1-.24.1-.61v-.12z"/></svg>
